X:1
T:Vater unser
T:Johannes Weinmann
T:Source : DDT 34---Leipzig---Breitkopf & Härtel---J.Wolf---1908. First print : Newe Deudsche Geistliche Gesenge---Wittemberg---G.Rhau---1544. Editor : André Vierendeels (03/08/17).
T:Vater unser
T:©
T:©
T:©
C:Johannes Weinmann
Z:©
%%score [ 1 [ 2 3 ] 4 ]
L:1/8
Q:1/4=120
M:2/2
K:C
V:1 treble nm="Soprano" snm="S"
V:2 treble-8 nm="Tenor 1" snm="T 1"
V:3 treble-8 nm="Tenor 2" snm="T 2"
V:4 bass nm="Bass" snm="B"
V:1
 z4 A4- | A4 A4 | F4 G4 | A3 G F2 E2- | ED D4 C2 | D8 | A8 | A4 G4 | c4 A4 | F4 G4 | A8 | A8 | %12
w: Va-|* ter|un- ser|im _ _ Him-|* * * mel-|reich,|der|du uns|al- le|heis- sest|gleich|Brü-|
 c4 d4 | f6 e2- | ed d4 c2 | d8 | d8 | e4 d4 | c4 B4 | A2 A4 G2 | A8 | d8 | c4 B4 | c4 A4 | A4 G4 | %25
w: der sein|und dich|_ _ ru- fen|an|und|wilt das|Be- ten|von uns _|han.|Gieb,|dasz nicht|bet al-|lein der|
 F8 | A4 _B4 | A4 F4 | G4 F2 E2- | ED D4 C2 | D8 |] %31
w: Mund;|Hilf, dasz|es geh|von Her- *|* * * zen|Grund.|
V:2
 c2 de f2 e2- | ed d4 c2 | d3 c BA e2 | e3 d c3 B | A2 _B2 A4 | F3 G A2 B2 | A2 d2 c2 f2- | %7
w: Va- * * * *|* * * ter|un- * ser _ in|Him- * * *|* mel- reich,|der _ _ du|uns al- le heis-|
 fecd e4 | e3 d e2 c2 | d3 c BA B2 | c3 d ef d2- | d2 c2 d2 f2- | f2 e2 f2 d2- | defg a4 | %14
w: * * * * sest|gleich _ Brü- der|sein _ _ _ und|dich _ _ _ ru-|* fen an und|_ wilt das Be-|* * * * ten|
 f2 g2 a4 | f3 e dc d2- | d2 e2 f4 | e2 g4 g2 | e3 f g2 e2- | e2 f2 e4 | c3 B AG A2- | AE A4 G2 | %22
w: von uns han,|und _ _ _ wilt|_ das Be-|ten von uns|han. _ _ Gieb|_ dasz nicht|bet _ _ _ al-|* * lein der|
 A2 e3 f g2 | e2 c3 BAG | F2 f4 e2 | f4 c4 | d2 f2 d3 e | f2 d4 d2 | d4 c4 | _B4 A4 | A8 |] %31
w: Mund, gieb, dasz nicht|bet al- * * *|* lein der|Mund; Hilf,|dasz es geh _|von Her- zen|Grund, von|Her- zen|Grund.|
V:3
 A8 | F3 G E4 | D2 A2 G2 B2 | c3 B A2 G2 | F2 G2 E4 | D3 E F2 G2 | F3 G A4 | z2 A2 B4 | A2 c3 BAG | %9
w: Va-|ter _ un-|ser in Him- *|||* * * mel-|reich, _ _|der du|uns al- * * *|
 A4 G4 | E2 A4 GF | E4 D4 | A4 A4 | d2 d4 c2 | d4 e4 | d3 c BA B2- | B2 c2 d4 | c4 z2 B2 | %18
w: * le|heis- * sest _|gleich Brü-|der sein|und dich ru-|||* * fen|an und|
 c3 d e2 B2 | c2 d2 B4 | A3 G FE F2- | FEDC D4 | E4 G4- | G2 A3 B c2 | d2 c3 B c2 | A2 c3 BAG | %26
w: wilt _ _ das|Be- ten von|uns _ _ _ _|_ _ _ _ han.|Gieb, dasz|_ nicht _ _|_ bet al- lein|der Mund; _ _ _|
 F4 G4 | F3 E FG A2 | _B4 A4 | F2 G2 E4 | D8 |] %31
w: _ Hilf,|dasz _ _ _ es|geh von|Her- * zen|Grund.|
V:4
 A,,4 D,2 C,2 | D,4 A,,4 | D,4 E,4 | z2 A,,3 B,, C,2 | D,2 G,,2 A,,4 | D,6 G,,2 | D,3 E, F,2 D,2- | %7
w: Va- * *|ter un-|ser im|Him- * *|* mel- reich,|der du|uns _ _ al-|
 D,E, F,2 E,4 | A,,4 z2 A,,2 | D,4 E,4 | A,,8 | A,,4 D,4 | A,,4 D,4 | D,4 z2 A,2 | _B,4 A,4 | %15
w: * le heis- sest|gleich Brü-|der sein|und|dich _|ru- fen|an und|wilt das|
 D,4 D,2 G,2- | G,2 F,E, D,4 | C,3 D, E,F, G,2 | A,4 E,2 G,2 | A,2 D,2 E,4 | A,,4 z2 D,2- | %21
w: Be- ten,und _|_ _ _ _|wilt _ _ _ das|Be- * ten|von uns _|han uns|
 D,C, B,,A,, B,,4 | A,,4 E,4 | C,2 F,4 F,2 |"^#" D,2 F,2 C,4 | F,,2 F,4 E,2 | D,3 C, _B,,2 G,,2 | %27
w: _ _ _ _ han.|Gieb, dasz|nicht bet al-|* lein der|Mund; Hilf _|dasz _ _ es|
 D,4 D,4 | G,,4 A,,4 | _B,,2 G,,2 A,,4 | D,,8 |] %31
w: geh von|Her- *|* * zen|Grund.|

